build/images/image-thumb.svg

<svg width="182" height="182" viewBox="0 0 182 182" fill="none" xmlns="http://www.w3.org/2000/svg">
<path d="M161.426 0H20.5847C9.23193 0 0 9.84511 0 21.9702V160.055C0 172.165 9.23193 182 20.5847 182H161.425C172.778 182 182 172.165 182 160.055V21.9702C182.001 9.84511 172.778 0 161.426 0ZM117.691 32.6738C128.669 32.6738 137.573 42.1725 137.573 53.8836C137.573 65.5946 128.669 75.0933 117.691 75.0933C106.709 75.0933 97.8086 65.5946 97.8086 53.8836C97.8086 42.1725 106.709 32.6738 117.691 32.6738ZM154.97 161.701H29.8769C24.3858 161.701 21.9402 157.463 24.4156 152.235L58.5371 80.1381C61.0095 74.9101 65.7214 74.4434 69.0582 79.0949L103.369 126.927C106.705 131.579 112.538 131.975 116.398 127.807L124.792 118.74C128.649 114.572 134.332 115.088 137.48 119.885L159.215 153.005C162.357 157.809 160.461 161.701 154.97 161.701Z" fill="#E0E0E0"/>
</svg>

<svg width="182" height="182" fill="none" xmlns="http://www.w3.org/2000/svg"><path d="M161.426 0H20.585C9.232 0 0 9.845 0 21.97v138.085C0 172.165 9.232 182 20.585 182h140.84c11.353 0 20.575-9.835 20.575-21.945V21.97C182.001 9.845 172.778 0 161.426 0zm-43.735 32.674c10.978 0 19.882 9.498 19.882 21.21 0 11.71-8.904 21.21-19.882 21.21-10.982 0-19.882-9.5-19.882-21.21 0-11.712 8.9-21.21 19.882-21.21zM154.97 161.7H29.877c-5.491 0-7.937-4.238-5.461-9.466l34.121-72.097c2.473-5.228 7.184-5.695 10.521-1.043l34.311 47.832c3.336 4.652 9.169 5.048 13.029.88l8.394-9.067c3.857-4.168 9.54-3.652 12.688 1.145l21.735 33.12c3.142 4.804 1.246 8.696-4.245 8.696z" fill="#E0E0E0"/></svg>
